X:1
T:Title
%%score 1 { 2 | 3 }
L:1/8
Q:1/4=120
M:4/4
K:D
V:1 treble nm="MusicXML Part"
V:2 treble nm="MusicXML Part"
V:3 bass 
V:1
 z2"^Beglückte Niedrigkeit   TWV 25, No. 61""^Singe-, Spiel und Generalbaßübungen (1733/34)" D>E F>G A>B | %1
w: Hebt mich kein ge- nei- gter|
 A2 d>A d>A d>A | %2
w: wind, lernt mein glü- cke nie- mals|
"^Singe-, Spiel und Generalbaßübungen (1734)""^Georg Philipp Telemann (1681-1767)" F>E D>E F>E F>G | %3
w: flie- gen, de- sto sich- rer bleib' ich|
[M:4/4] F>E D>A F>E F>G | E>^G A>F G3 A | A6 z2 |: D2 E>F G>F G>=c | B>G A>F G2 z2 | %8
w: lie * gen; denn, da ich nie- drig|bin, so stoss' ich nir- gend|an.|Wer in der that schon liegt, der|für- chtet kei- nen fall|
 D2 E>F G>F G>=c | B>G A>F G3 z/ A/ | B>c d>e c>A B>c | d3 c/B/ A>GF>E | D3 G E4 | D6 z2 :| %14
w: und wird zu kei- ner zeit des|ung- lücks lei- chter ball, der|da- rum stei- gen muss, da- mit er|fa * * * * * *|* * llen|kann.|
V:2
 [FAd]3 z/ [EAe]/ [FAd]2 [DAd]>[DGB] | [DAd]2 [DAd]2 [DAd]2 [DAd]>[EAc] | %2
 [FAd]2 [DAd]>[GAc] [FAd]3 z/ [GAe]/ |[M:4/4] [FAd]2 [FAd]>[EAe] [FAd]2 [FAd]2 | %4
 [EAc]2 [EAe]>[FAd] [EAc]2 [E^GB]2 | [EAc]2 z2 [EAc]2 z2 |: [DGd]2 [EG=c]2 [DGd]3 z/ [Acd]/ | %7
 [GBd]2 [FAd]2 [DGB]2 [DGd]>[DF=c] | [DGB]2 [EG=c]2 [DGd]3 z/ [Acd]/ | %9
 [GBd]2 [FAd]2 [GBd]2 [GBd]>[FAd] | [GBd]2 [EBd]2 [EAc]3 z/ [EAc]/ | [DAd]2 [FAd]2 [EAe]2 [FAc]2 | %12
 [DFB]2 [DFB]>[GBd] [FAd]2 [EAc]2 | [FAd]2 z2 [FAd]2 z2 :| %14
V:3
 D,3 z/"^6" C,/ D,>E,"^6"F,>G, |"^6" F,>E,"^6"F,>A,"^6" F,>A,"^6"F,>A, | %2
 D,2"^6" F,>"^6"E, D,3 z/"^6\n5" C,/ |[M:4/4] D,>E,"^6"F,>"^6"C, D,2 D,,2 | %4
 A,,>B,,"^6"C,>D,"^6\n4" E,2"^5" E,,2 | A,,>A,C,>E, A,,2 z2 |: %6
"^6" B,,2 =C,2"^6" B,,3 z/"^6\n5" F,/ | G,2 D,2 G,,>A,,"^6"B,,>"^6"A,, | %8
 G,,2 =C,2"^6" B,,3 z/"^6\n5" F,/ | G,2 D,2 G,,>G,"^6"B,,>D, | %10
 G,,2"^6\n5" ^G,2 A,3 z/"^4\n2" =G,/ |"^6" F,>A,"^6"F,>D,"^6" C,2"^6" A,,2 | %12
 B,,>A,,B,,>G,,"^6\n4" A,,2"^5\n3" A,,2 | D,,>D,F,,>A,, D,,2 z2 :| %14

